X:1
T:Title
%%score { ( 1 4 ) | ( 2 3 ) }
L:1/8
M:3/4
K:Eb
V:1 treble nm="Grand Piano"
V:4 treble 
V:2 bass 
V:3 bass 
V:1
 z2 z2[Q:1/4=106] E>G | [GB]2 [GB]2 (3[_G-c][Gd][Ge] | [GB]4 G>G | A2 [FA]2 (3[Ac][GB][FA] | %4
[M:2/4] G4 |[M:1/4] E>G |[M:3/4] [GB]2 [GB]2 (3[_G-c][Gd][Ge] | [GB]4 [Ge]>[Ge] | %8
 [Fd]2 [Fd]2 (3[DB][Ec][Fd] |[M:2/4] [Ge]4 |[M:1/4] G>G |[M:3/4] A2 [FA]2 (3FGA | G2 B2 G>G | %13
 A2 [FA]2 (3FGA |[M:2/4] G2 B2 |[M:1/4] [Ge]>[Ge] |[M:3/4] d2 d2 (3=Bcd | c2 e2 d>c | %18
 B2 [GB]2 (3=AB[EGc] |[M:2/4] [DFB]4 |[M:1/4] z2 |[M:3/4] [EGB]>[GB] [B,GB]>[GB] (3[_G-c][Gd][Ge] | %22
 [GB]4 G>G | A2 [FA]2 (3[Ac][GB][FA] |[M:2/4] G4 |[M:1/4] E>G | %26
[M:3/4] [GB]2 [GB]2 (3[_G-c][Gd][Ge] | [GB]4 [Ge]>[Ge] | [Fd]2 [Fd]2 (3[DB][Ec][Fd] | %29
[M:2/4] [Ge]4 |] %30
V:2
 z2 z2 [E,G,]>[E,B,E] | [E,E]2 [E,B,]2 (3:2:2[E,A,]2 [E,A,] | [E,B,]4 [E,B,E]>[E,B,E] | %3
 [F,B,D]2 [B,,B,]2 (3:2:2[D,B,]2 [B,,B,] |[M:2/4] [E,B,E]4 |[M:1/4] [E,G,]>[E,B,E] | %6
[M:3/4] [E,E]2 [E,B,]2 (3:2:2[E,=A,]2 [E,A,] | [E,B,]4 [E,B,]>[E,B,] | %8
 [B,,B,]2 [B,,B,]2 (3:2:2[B,,B,]2 [B,,B,] |[M:2/4] [E,B,]4 |[M:1/4] [E,B,E]>[E,B,E] | %11
[M:3/4] [F,B,D]2 [B,,B,]2 (3[A,B,-D][G,B,E][F,B,F] | [B,E]4 z2 | %13
 [F,B,D]2 [B,,B,]2 (3[A,B,-D][G,B,E][F,B,F] |[M:2/4] E2 z2 |[M:1/4] [C,C]>[C,C] | %16
[M:3/4][K:treble] [G,B,G]2 [G,B,G]2 (3[G,-D][G,E][G,B,F] | z2 z2[K:bass] B,2 | z2 z2 F2 | %19
[M:2/4] B,,2 B,2 |[M:1/4] (3A,G,F, |[M:3/4] z z/ E/ z z/ B,/ (3:2:2[E,=A,]2 [E,A,] | %22
 [E,B,]4 [E,B,E]>[E,B,E] | [F,B,D]2 [B,,B,]2 (3:2:2[D,B,]2 [B,,B,] |[M:2/4] [E,B,E]4 | %25
[M:1/4] [E,G,]>[E,B,E] |[M:3/4] [E,E]2 [E,B,]2 (3:2:2[E,=A,]2 [E,A,] | [E,B,]4 [E,B,]>[E,B,] | %28
 [B,,B,]2 [B,,B,]2 (3:2:2[B,,B,]2 [B,,B,] |[M:2/4] [E,B,]4 |] %30
V:3
 x6 | x6 | x6 | x6 |[M:2/4] x4 |[M:1/4] x2 |[M:3/4] x6 | x6 | x6 |[M:2/4] x4 |[M:1/4] x2 | %11
[M:3/4] x6 | E,2 G,2 [E,B,E]>[E,B,E] | x6 |[M:2/4] [E,B,]2- [E,B,G]2 |[M:1/4] x2 | %16
[M:3/4][K:treble] x6 | [A,CE]4[K:bass] A,,->[A,,A,] | [E,G,E]2 [E,E]2 (3[F,-C][F,B,]F, | %19
[M:2/4] x4 |[M:1/4] x2 |[M:3/4] E,2 E,2 z2 | x6 | x6 |[M:2/4] x4 |[M:1/4] x2 |[M:3/4] x6 | x6 | %28
 x6 |[M:2/4] x4 |] %30
V:4
 x6 | x6 | x6 | x6 |[M:2/4] x4 |[M:1/4] x2 |[M:3/4] x6 | x6 | x6 |[M:2/4] x4 |[M:1/4] x2 | %11
[M:3/4] x6 | x6 | x6 |[M:2/4] x4 |[M:1/4] x2 |[M:3/4] x6 | z2 z2 E2 | x6 |[M:2/4] x4 |[M:1/4] x2 | %21
[M:3/4] x6 | x6 | x6 |[M:2/4] x4 |[M:1/4] x2 |[M:3/4] x6 | x6 | x6 |[M:2/4] x4 |] %30

